X:1
T:6 Lieder, Op.10
T:Scheideblick
T:5. Scheideblick
T:Josephine Lang
T:Nikolaus Lenau
T:6 Lieder, Op.10
T:OpenScore (CC0)
T:OpenScore (CC0)
T:OpenScore (CC0)
C:Josephine Lang
Z:Nikolaus Lenau
Z:OpenScore (CC0)
%%score ( 1 2 ) { 4 | ( 3 5 6 ) }
L:1/8
Q:1/4=70
M:4/4
K:C
V:1 treble nm="Voice"
V:2 treble 
V:4 treble nm="Piano"
V:3 bass 
V:5 bass 
V:6 bass 
V:1
"^Lento" z4 | z8 | z8 | z8 | z8 | z8 | z8 | z8 | C3 C E3 E | E E G3/2 F/ (F2 E2) | F3 F E2 z E | %11
w: |||||||||||
w: ||||||||Like a deep un-|sound- ed sea of joy *|Sunk in- to my|
w: ||||||||Als ein un- er-|gründ- lich Won- ne- meer *|strahl- te mir dein|
 E E D C D2 z2 | z2 D3/2 E/ F2 A2 | F3/2 F/ E B, C2 z2 | C C B,3/2 C/ E2 D2 | %15
w: ||||
w: soul  thine ear- nest gaze.|I de- part and|far from thee must die,|And in part- ing hopes of|
w: see- len- vol- ler Blick!|schei- den musst' ich|oh- ne Wie- der- kehr,|und ich ha- be schei- dend|
 C3 G!<(! (G2!<)! ^F2) |!f! c3!>(! C B,2!>)! z =F | F F E3/2 D/ C2 z2 | z2 B,3/2 C/ E2 z D | %19
w: ||||
w: |In this sea have|bu- ried si- lent- ly|In this sea- have|
w: |still ver- senkt in|die- ses tie- fe Meer,|still ver- senkt in|
 C B, A,3/2 B,/ C4 | z8 | z8 | z8 | z8 | z8 | z8 |] %26
w: |||||||
w: bu- ried si- lent- ly.|||||||
w: die- ses tie- fe Meer!|||||||
V:2
 x4 | x8 | z2 x2 x4 | x8 | x8 | x2 x2 x4 | x8 | x8 | x8 | x8 | x8 | x8 | x8 | x8 | x8 | %15
w: |||||||||||||||
w: |||||||||||||||
w: |||||||||||||||
 (C3 G) G2 ^F2 | x8 | x8 | x8 | x8 | x2 x2 x4 | x8 | x8 | x2 x2 x4 | x8 | x8 |] %26
w: |||||||||||
w: hap- pier days _|||||||||||
w: all' _ mein Glück|||||||||||
V:3
!p![I:staff -1] (G2 F>E) | (E2 F2) ([A,CFA]2 [DF_AB]2 | [CEGc]4) E2 F>E | %3
 (E2 F2)!<(! [A,CFA]2!<)! (([DF_A=B]2 | [CEGc]6))!pp! (([DF_AB]2 | [CEGc]4)) z2 (([DF_A=B]2 | %6
 [CEGc]2)) z2 [CE]2 z2 |!p! !^![CE]8 |[I:staff +1] (3E,G,C (3E,G,C (3E,G,C (3E,G,C | %9
 (3G,CE (3G,CE (3G,CE (3G,CE | (3F,CF (3F,CF (3G,CE (3G,CE | (3A,CE (3A,CE (3G,=B,D (3G,B,D | %12
 (3G,_B,D (3G,B,D (3F,A,D (3F,A,D | (3F,A,D (3E,^G,D (3E,A,C (3E,A,C | %14
 (3F,A,C (3F,A,C (3F,_A,C (3F,A,C | (3E,G,C (3E,G,C!<(! (3_E,G,C!<)! (3D,^F,C | %16
 (3^F,CD (3F,CD!>(! (3=F,B,D!>)! (3F,B,D | (3F,B,D (3F,B,D (3E,B,C (3E,A,C | %18
 (3F,A,C (3F,A,C (3F,_A,C (3F,A,C | (3F,G,B, (3F,G,B, (3E,G,C (3E,G,C | %20
[I:staff -1] (G2 F>E) (E2 F2) | ([A,CFA]2 [B,DF_A=B]2 [CEGc]4) | (G2 F>E) (E2 F2) | %23
!p!!<(! [A,CFA]2 (([B,DF_A=B]2!<)!!>(! [CEGc]4))!>)! | z2"_dim." (([B,DF_A=B]2 [CEGc]4)) | %25
 [E,G,CE]4!pp! !fermata![E,G,CE]4 |] %26
V:4
 C4 | C4 x4 | x4 C4 | C4 x4 | x8 | x8 | x8 | x8 | x8 | x8 | x8 | x8 | x8 | x8 | x8 | x8 | x8 | x8 | %18
 x8 | x8 | C4 C4 | x8 | C4 C4 | x8 | x8 |[K:bass] x8 |] %26
V:5
 G,2 F,3/2 E,/ | E,2 F,2 x4 | x4 G,2 F,3/2 E,/ | E,2 F,2 x4 | %4
!>(! (3C,,C,C,,!>)! (3C,C,,C, (3F,,C,F,, (3C,F,,C, | (3C,,C,C,, (3C,C,,C, (3F,,C,F,, (3C,F,,C, | %6
 (3C,,C,C,, (3C,C,,C, (3C,,!<(!G,,C,, (3G,,C,,G,,!<)! | %7
 (3C,,G,,C,, (3G,,C,,G,, (3C,,G,,C,, (3G,,C,,G,, | C,,4 C,4 | _B,,4 B,,4 | [A,,,A,,]4 [G,,,G,,]4 | %11
 [^F,,,^F,,]4 [G,,,G,,]4 | G,,4 [D,,D,]4 | E,,4 [A,,,A,,]4 | F,,4 F,,4 | G,,4 A,,4 | %16
 [D,,D,]4 G,,4 | ^G,,4 A,,4 |!p! F,,4 F,,4 | G,,4 C,,4 | G,2 F,3/2 E,/ E,2 F,2 | %21
 (3C,F,,C, (3F,,C,F,, (3C,C,,C, (3C,,C,C,, | G,2 F,3/2 E,/ E,2 F,2 | %23
 (3C,F,,C, (3F,,C,F,, (3C,C,,C, (3C,,C,C,, | (3F,,C,F,, (3C,F,,C, (3C,,C,C,, (3C,C,,C,- | %25
 (3C,C,,G,,!ped! (3C,,G,,(C,, !fermata![C,,E,,]4)!ped-up! |] %26
V:6
 (3C,_B,,C, (3A,,C,^G,, | (3C,^G,,C, (3A,,C,A,, (3C,F,,C, (3F,,C,F,, | %2
 (3C,C,,C, (3C,,C,C,, (3C,_B,,C, (3A,,C,^G,, | (3C,^G,,C, (3A,,C,A,, (3C,F,,C, (3F,,C,F,, | x8 | %5
 x8 | x4 [E,G,]2 x2 | [E,G,]8 | x8 | _B,,,8 | x8 | x8 | x8 | x8 | x8 | x8 | x8 | x8 | x8 | x8 | %20
 (3_B,,C,B,, (3A,,C,^G,, (3C,G,,C, (3A,,C,A,, | x8 | (3_B,,C,B,, (3A,,C,^G,, (3C,G,,C, (3A,,C,A,, | %23
 x8 | x8 | x8 |] %26

